archdroid-icon-theme/Archdroid-ArchBlue/mimetypes/scalable/application-pgp-keys.svg

<?xml version="1.0" encoding="UTF-8" standalone="no"?>
<svg
   xmlns:dc="http://purl.org/dc/elements/1.1/"
   xmlns:cc="http://creativecommons.org/ns#"
   xmlns:rdf="http://www.w3.org/1999/02/22-rdf-syntax-ns#"
   xmlns:svg="http://www.w3.org/2000/svg"
   xmlns="http://www.w3.org/2000/svg"
   xmlns:sodipodi="http://sodipodi.sourceforge.net/DTD/sodipodi-0.dtd"
   xmlns:inkscape="http://www.inkscape.org/namespaces/inkscape"
   fill="#1793D1"
   width="48"
   height="48"
   viewBox="0 0 48 48"
   id="svg2"
   version="1.1"
   inkscape:version="0.91 r13725"
   sodipodi:docname="application-pgp-keys.svg">
  <metadata
     id="metadata10">
    <rdf:RDF>
      <cc:Work
         rdf:about="">
        <dc:format>image/svg+xml</dc:format>
        <dc:type
           rdf:resource="http://purl.org/dc/dcmitype/StillImage" />
        <dc:title></dc:title>
      </cc:Work>
    </rdf:RDF>
  </metadata>
  <defs
     id="defs8" />
  <sodipodi:namedview
     pagecolor="#ffffff"
     bordercolor="#666666"
     borderopacity="1"
     objecttolerance="10"
     gridtolerance="10"
     guidetolerance="10"
     inkscape:pageopacity="0"
     inkscape:pageshadow="2"
     inkscape:window-width="1366"
     inkscape:window-height="713"
     id="namedview6"
     showgrid="false"
     inkscape:zoom="2.4583333"
     inkscape:cx="-8.4248785"
     inkscape:cy="26.133016"
     inkscape:window-x="0"
     inkscape:window-y="30"
     inkscape:window-maximized="1"
     inkscape:current-layer="svg2"
     inkscape:snap-bbox="true"
     inkscape:bbox-paths="true"
     inkscape:bbox-nodes="true" />
  <path
     d="M 12 6 C 11.07 6 10.239453 6.4298437 9.6894531 7.0898438 L 6.9199219 10.449219 C 6.3399219 11.149219 6 12.03 6 13 L 6 38 C 6 40.21 7.79 42 10 42 L 38 42 C 40.21 42 42 40.21 42 38 L 42 13 C 42 12.03 41.659844 11.149219 41.089844 10.449219 L 38.320312 7.0898438 C 37.760312 6.4298437 36.93 6 36 6 L 12 6 z M 24 16.5 C 26.76 16.5 29 18.739999 29 21.5 L 29 23.5 L 30 23.5 C 31.105 23.5 32 24.395 32 25.5 L 32 35.5 C 32 36.605 31.105 37.5 30 37.5 L 18 37.5 C 16.895 37.5 16 36.605 16 35.5 L 16 25.5 C 16 24.395 16.895 23.5 18 23.5 L 19 23.5 L 19 21.5 C 19 18.739999 21.24 16.5 24 16.5 z "
     id="path4188" />
  <path
     d="m 10.25,10 1.63,-2 24,0 1.87,2 -27.5,0 z"
     id="path4"
     style="fill:#ffffff;fill-opacity:1" />
  <text
     xml:space="preserve"
     style="font-style:normal;font-variant:normal;font-weight:500;font-stretch:normal;font-size:12.5px;line-height:120%;font-family:Ubuntu;-inkscape-font-specification:'Ubuntu, Medium';text-align:center;letter-spacing:0px;word-spacing:0px;writing-mode:lr;text-anchor:middle;opacity:1;fill:#ffffff;fill-opacity:1;stroke:none;stroke-width:1px;stroke-linecap:butt;stroke-linejoin:miter;stroke-opacity:1;"
     x="23.966894"
     y="33.6875"
     id="text4138"
     sodipodi:linespacing="120%"><tspan
       sodipodi:role="line"
       id="tspan4140"
       x="23.966894"
       y="33.6875" /></text>
  <path
     style="fill:#1793D1"
     d="m 24,32.5 c -1.105,0 -2,-0.894999 -2,-2 0,-1.104999 0.895,-2 2,-2 1.105,0 2,0.895001 2,2 0,1.105001 -0.895,2 -2,2 z"
     id="path4158" />
  <path
     style="fill:#1793D1"
     d="m 27.1,23.500001 -6.2,0 0,-2 c 0,-1.71 1.39,-3.1 3.1,-3.1 1.71,0 3.1,1.39 3.1,3.1 l 0,2 z"
     id="path4138" />
</svg>

<svg xmlns="http://www.w3.org/2000/svg" fill="#1793D1" viewBox="0 0 48 48"><path d="m12 6c-.93 0-1.761.43-2.311 1.09l-2.77 3.359c-.58.7-.92 1.581-.92 2.551v25c0 2.21 1.79 4 4 4h28c2.21 0 4-1.79 4-4v-25c0-.97-.34-1.851-.91-2.551l-2.77-3.359c-.56-.66-1.39-1.09-2.32-1.09h-24m12 10.5c2.76 0 5 2.24 5 5v2h1c1.105 0 2 .895 2 2v10c0 1.105-.895 2-2 2h-12c-1.105 0-2-.895-2-2v-10c0-1.105.895-2 2-2h1v-2c0-2.76 2.24-5 5-5"/><g fill="#fff"><path d="m10.25 10l1.63-2h24l1.87 2h-27.5"/><text x="23.967" y="33.688" font-family="Ubuntu" letter-spacing="0" word-spacing="0" text-anchor="middle" text-align="center" font-weight="500" writing-mode="lr" line-height="120%" font-size="12.5"><tspan x="23.967" y="33.688"/></text></g><path d="m24 32.5c-1.105 0-2-.895-2-2 0-1.105.895-2 2-2 1.105 0 2 .895 2 2 0 1.105-.895 2-2 2"/><path d="m27.1 23.5h-6.2v-2c0-1.71 1.39-3.1 3.1-3.1 1.71 0 3.1 1.39 3.1 3.1v2"/></svg>
